; generated by Slic3r 0.9.9 on 2014-12-30 at 11:33:14

; layer_height = .1
; perimeters = 3
; top_solid_layers = 3
; bottom_solid_layers = 3
; fill_density = .5
; perimeter_speed = 40
; infill_speed = 60
; travel_speed = 70
; nozzle_diameter = 0.4
; filament_diameter = 1.75
; extrusion_multiplier = 1
; perimeters extrusion width = 0.68mm
; infill extrusion width = 1.28mm
; solid infill extrusion width = 0.68mm
; top infill extrusion width = 0.68mm
; support material extrusion width = 0.68mm
; first layer extrusion width = 0.60mm

G21 ; set units to millimeters
M107
M104 S208 ; set temperature
G28 X0 Y0  
G29
M109 S208 ; wait for temperature to be reached
G90 ; use absolute coordinates
G92 E0
M82 ; use absolute distances for extrusion
G1 F1800.000 E-1.00000
G92 E0
G1 Z0.300 F4200.000
G1 X75.584 Y87.464
G1 F1800.000 E1.00000
G1 X76.714 Y86.494 F1800.000 E1.10347
G1 X77.704 Y85.774 E1.18853
G1 X78.974 Y84.994 E1.29209
G1 X80.054 Y84.444 E1.37630
G1 X81.434 Y83.874 E1.48004
G1 X82.564 Y83.504 E1.56266
G1 X84.014 Y83.154 E1.66630
G1 X85.244 Y82.964 E1.75277
G1 X86.724 Y82.854 E1.85589
G1 X87.294 Y82.834 E1.89552
G1 X112.694 Y82.834 E3.66036
G1 X113.254 Y82.854 E3.69930
G1 X114.744 Y82.964 E3.80311
G1 X115.994 Y83.164 E3.89107
G1 X117.434 Y83.514 E3.99403
G1 X118.554 Y83.874 E4.07578
G1 X119.934 Y84.444 E4.17952
G1 X121.014 Y84.994 E4.26373
G1 X122.284 Y85.774 E4.36728
G1 X123.274 Y86.494 E4.45234
G1 X124.404 Y87.464 E4.55581
G1 X125.224 Y88.284 E4.63639
G1 X126.194 Y89.414 E4.73986
G1 X126.914 Y90.404 E4.82492
G1 X127.694 Y91.674 E4.92848
G1 X128.244 Y92.754 E5.01269
G1 X128.814 Y94.134 E5.11643
G1 X129.184 Y95.264 E5.19905
G1 X129.534 Y96.714 E5.30269
G1 X129.724 Y97.894 E5.38573
G1 X129.844 Y99.374 E5.48890
G1 X129.844 Y100.614 E5.57506
G1 X129.724 Y102.104 E5.67893
G1 X129.524 Y103.294 E5.76277
G1 X129.174 Y104.734 E5.86574
G1 X128.814 Y105.854 E5.94748
G1 X128.244 Y107.234 E6.05122
G1 X127.694 Y108.314 E6.13543
G1 X126.914 Y109.584 E6.23899
G1 X126.214 Y110.544 E6.32154
G1 X125.244 Y111.684 E6.42554
G1 X124.374 Y112.564 E6.51152
G1 X123.244 Y113.524 E6.61455
G1 X122.284 Y114.214 E6.69669
G1 X121.014 Y114.994 E6.80025
G1 X119.934 Y115.544 E6.88446
G1 X118.554 Y116.114 E6.98820
G1 X117.434 Y116.474 E7.06994
G1 X115.994 Y116.824 E7.17291
G1 X114.804 Y117.024 E7.25675
G1 X113.314 Y117.144 E7.36061
G1 X112.694 Y117.164 E7.40372
G1 X87.294 Y117.164 E9.16856
G1 X86.674 Y117.144 E9.21166
G1 X85.194 Y117.024 E9.31483
G1 X84.014 Y116.834 E9.39788
G1 X82.564 Y116.484 E9.50152
G1 X81.434 Y116.114 E9.58414
G1 X80.054 Y115.544 E9.68788
G1 X78.974 Y114.994 E9.77209
G1 X77.704 Y114.214 E9.87565
G1 X76.744 Y113.524 E9.95779
G1 X75.614 Y112.564 E10.06081
G1 X74.744 Y111.684 E10.14679
G1 X73.774 Y110.544 E10.25080
G1 X73.074 Y109.584 E10.33335
G1 X72.294 Y108.314 E10.43691
G1 X71.744 Y107.234 E10.52112
G1 X71.174 Y105.854 E10.62486
G1 X70.814 Y104.734 E10.70660
G1 X70.464 Y103.294 E10.80957
G1 X70.264 Y102.044 E10.89752
G1 X70.154 Y100.554 E11.00133
G1 X70.154 Y99.424 E11.07985
G1 X70.264 Y97.944 E11.18297
G1 X70.454 Y96.714 E11.26944
G1 X70.804 Y95.264 E11.37309
G1 X71.174 Y94.134 E11.45570
G1 X71.744 Y92.754 E11.55944
G1 X72.294 Y91.674 E11.64366
G1 X73.074 Y90.404 E11.74721
G1 X73.794 Y89.414 E11.83227
G1 X74.764 Y88.284 E11.93574
G1 X75.525 Y87.523 E12.01051
G1 X75.954 Y87.884 F4200.000
G1 X77.084 Y86.914 F1800.000 E12.11399
G1 X77.994 Y86.254 E12.19209
G1 X79.264 Y85.474 E12.29565
G1 X80.264 Y84.954 E12.37396
G1 X81.644 Y84.384 E12.47771
G1 X82.694 Y84.044 E12.55439
G1 X84.144 Y83.694 E12.65803
G1 X85.284 Y83.524 E12.73812
G1 X86.764 Y83.414 E12.84124
G1 X87.294 Y83.394 E12.87809
G1 X112.694 Y83.394 E14.64293
G1 X113.214 Y83.414 E14.67909
G1 X114.704 Y83.524 E14.78290
G1 X115.864 Y83.704 E14.86446
G1 X117.304 Y84.054 E14.96743
G1 X118.344 Y84.384 E15.04324
G1 X119.724 Y84.954 E15.14698
G1 X120.724 Y85.474 E15.22530
G1 X121.994 Y86.254 E15.32886
G1 X122.904 Y86.914 E15.40696
G1 X124.034 Y87.884 E15.51044
G1 X124.804 Y88.654 E15.58610
G1 X125.774 Y89.784 E15.68957
G1 X126.434 Y90.694 E15.76768
G1 X127.214 Y91.964 E15.87124
G1 X127.734 Y92.964 E15.94955
G1 X128.304 Y94.344 E16.05330
G1 X128.644 Y95.394 E16.12998
G1 X128.994 Y96.844 E16.23362
G1 X129.164 Y97.944 E16.31096
G1 X129.284 Y99.424 E16.41413
G1 X129.284 Y100.564 E16.49334
G1 X129.164 Y102.054 E16.59721
G1 X128.984 Y103.164 E16.67534
G1 X128.634 Y104.604 E16.77831
G1 X128.304 Y105.644 E16.85412
G1 X127.734 Y107.024 E16.95786
G1 X127.214 Y108.024 E17.03617
G1 X126.434 Y109.294 E17.13973
G1 X125.794 Y110.184 E17.21590
G1 X124.824 Y111.324 E17.31990
G1 X124.014 Y112.134 E17.39949
G1 X122.884 Y113.094 E17.50252
G1 X121.994 Y113.734 E17.57868
G1 X120.724 Y114.514 E17.68224
G1 X119.724 Y115.034 E17.76056
G1 X118.344 Y115.604 E17.86430
G1 X117.304 Y115.934 E17.94011
G1 X115.864 Y116.284 E18.04308
G1 X114.754 Y116.464 E18.12121
G1 X113.264 Y116.584 E18.22507
G1 X112.694 Y116.604 E18.26470
G1 X87.294 Y116.604 E20.02955
G1 X86.724 Y116.584 E20.06917
G1 X85.244 Y116.464 E20.17235
G1 X84.144 Y116.294 E20.24968
G1 X82.694 Y115.944 E20.35333
G1 X81.644 Y115.604 E20.43001
G1 X80.264 Y115.034 E20.53375
G1 X79.264 Y114.514 E20.61207
G1 X77.994 Y113.734 E20.71562
G1 X77.104 Y113.094 E20.79179
G1 X75.974 Y112.134 E20.89482
G1 X75.164 Y111.324 E20.97441
G1 X74.194 Y110.184 E21.07841
G1 X73.554 Y109.294 E21.15458
G1 X72.774 Y108.024 E21.25813
G1 X72.254 Y107.024 E21.33645
G1 X71.684 Y105.644 E21.44019
G1 X71.354 Y104.604 E21.51600
G1 X71.004 Y103.164 E21.61897
G1 X70.824 Y102.004 E21.70053
G1 X70.714 Y100.514 E21.80434
G1 X70.714 Y99.464 E21.87730
G1 X70.824 Y97.984 E21.98042
G1 X70.994 Y96.844 E22.06050
G1 X71.344 Y95.394 E22.16415
G1 X71.684 Y94.344 E22.24083
G1 X72.254 Y92.964 E22.34457
G1 X72.774 Y91.964 E22.42289
G1 X73.554 Y90.694 E22.52644
G1 X74.214 Y89.784 E22.60455
G1 X75.184 Y88.654 E22.70803
G1 X75.895 Y87.943 E22.77788
G1 X76.314 Y88.304 F4200.000
G1 X77.444 Y87.334 F1800.000 E22.88136
G1 X78.284 Y86.724 E22.95349
G1 X79.554 Y85.944 E23.05704
G1 X80.484 Y85.474 E23.12945
G1 X81.864 Y84.904 E23.23319
G1 X82.824 Y84.594 E23.30328
G1 X84.274 Y84.244 E23.40693
G1 X85.324 Y84.074 E23.48083
G1 X87.294 Y83.944 E23.61801
G1 X112.694 Y83.944 E25.38285
G1 X114.664 Y84.074 E25.52003
G1 X115.734 Y84.244 E25.59531
G1 X117.174 Y84.594 E25.69828
G1 X118.124 Y84.904 E25.76771
G1 X119.504 Y85.474 E25.87145
G1 X120.434 Y85.944 E25.94385
G1 X121.704 Y86.724 E26.04741
G1 X122.544 Y87.334 E26.11954
G1 X123.674 Y88.304 E26.22301
G1 X124.384 Y89.014 E26.29278
G1 X125.354 Y90.144 E26.39626
G1 X125.964 Y90.984 E26.46839
G1 X126.744 Y92.254 E26.57194
G1 X127.214 Y93.184 E26.64434
G1 X127.784 Y94.564 E26.74809
G1 X128.094 Y95.524 E26.81818
G1 X128.444 Y96.974 E26.92182
G1 X128.614 Y97.984 E26.99299
G1 X128.734 Y99.464 E27.09616
G1 X128.734 Y100.524 E27.16981
G1 X128.614 Y102.014 E27.27367
G1 X128.444 Y103.034 E27.34552
G1 X128.094 Y104.474 E27.44849
G1 X127.784 Y105.424 E27.51792
G1 X127.214 Y106.804 E27.62166
G1 X126.744 Y107.734 E27.69407
G1 X125.964 Y109.004 E27.79762
G1 X125.364 Y109.824 E27.86822
G1 X124.394 Y110.964 E27.97222
G1 X123.654 Y111.714 E28.04543
G1 X122.524 Y112.674 E28.14845
G1 X121.704 Y113.264 E28.21865
G1 X120.434 Y114.044 E28.32220
G1 X119.504 Y114.514 E28.39460
G1 X118.124 Y115.084 E28.49835
G1 X117.174 Y115.394 E28.56778
G1 X115.734 Y115.744 E28.67075
G1 X114.714 Y115.914 E28.74260
G1 X113.224 Y116.034 E28.84646
G1 X112.694 Y116.054 E28.88331
G1 X87.294 Y116.054 E30.64815
G1 X86.764 Y116.034 E30.68501
G1 X85.284 Y115.914 E30.78818
G1 X84.274 Y115.744 E30.85934
G1 X82.824 Y115.394 E30.96298
G1 X81.864 Y115.084 E31.03308
G1 X80.484 Y114.514 E31.13682
G1 X79.554 Y114.044 E31.20922
G1 X78.284 Y113.264 E31.31278
G1 X77.464 Y112.674 E31.38297
G1 X76.334 Y111.714 E31.48599
G1 X75.594 Y110.964 E31.55920
G1 X74.624 Y109.824 E31.66320
G1 X74.024 Y109.004 E31.73380
G1 X73.244 Y107.734 E31.83736
G1 X72.774 Y106.804 E31.90976
G1 X72.204 Y105.424 E32.01350
G1 X71.894 Y104.474 E32.08293
G1 X71.544 Y103.034 E32.18590
G1 X71.374 Y101.964 E32.26118
G1 X71.264 Y100.474 E32.36499
G1 X71.264 Y99.504 E32.43239
G1 X71.374 Y98.024 E32.53550
G1 X71.544 Y96.974 E32.60941
G1 X71.894 Y95.524 E32.71305
G1 X72.204 Y94.564 E32.78315
G1 X72.774 Y93.184 E32.88689
G1 X73.244 Y92.254 E32.95929
G1 X74.024 Y90.984 E33.06285
G1 X74.634 Y90.144 E33.13498
G1 X75.604 Y89.014 E33.23845
G1 X76.255 Y88.363 E33.30241
G1 F1800.000 E32.30241
G92 E0
G1 X84.589 Y95.623 F4200.000
G1 F1800.000 E1.00000
G1 X90.011 Y95.623 F1800.000 E1.37674
G1 X90.654 Y96.737 E1.46613
G1 X83.946 Y96.737 E1.93226
G1 X83.302 Y97.851 E2.02165
G1 X91.298 Y97.851 E2.57716
G1 X91.941 Y98.965 E2.66655
G1 X82.659 Y98.965 E3.31146
G1 X82.108 Y100.080 E3.39784
G1 X92.492 Y100.080 E4.11936
G1 X91.849 Y101.194 E4.20875
G1 X82.751 Y101.194 E4.84088
G1 X83.394 Y102.308 E4.93027
G1 X91.206 Y102.308 E5.47302
G1 X90.562 Y103.422 E5.56241
G1 X84.038 Y103.422 E6.01576
G1 X84.681 Y104.536 E6.10515
G1 X89.919 Y104.536 E6.46911
G1 F1800.000 E5.46911
G92 E0
G1 X111.083 Y102.308 F4200.000
G1 F1800.000 E1.00000
G1 X108.794 Y102.308 F1800.000 E1.15903
G1 X108.151 Y101.194 E1.24842
G1 X110.136 Y101.194 E1.38633
G1 X109.875 Y100.080 E1.46583
G1 X107.508 Y100.080 E1.63033
G1 X108.059 Y98.965 E1.71670
G1 X110.074 Y98.965 E1.85667
G1 X110.864 Y97.851 E1.95159
G1 X108.702 Y97.851 E2.10178
G1 X109.346 Y96.737 E2.19117
G1 X116.054 Y96.737 E2.65730
G1 X114.536 Y97.851 E2.78815
G1 X116.698 Y97.851 E2.93834
G1 X117.341 Y98.965 E3.02773
G1 X115.326 Y98.965 E3.16770
G1 X115.525 Y100.080 E3.24633
G1 X117.892 Y100.080 E3.41083
G1 X117.249 Y101.194 E3.50022
G1 X115.264 Y101.194 E3.63812
G1 X114.317 Y102.308 E3.73973
G1 X116.606 Y102.308 E3.89876
G1 X115.962 Y103.422 E3.98815
G1 X109.438 Y103.422 E4.44151
G1 X110.081 Y104.536 E4.53090
G1 X115.319 Y104.536 E4.89486
G1 F1800.000 E3.89486
G92 E0
G1 X115.411 Y95.623 F4200.000
G1 F1800.000 E1.00000
G1 X109.989 Y95.623 F1800.000 E1.37674
G1 X108.566 Y94.376 F4200.000
G1 X109.010 Y93.608 F1800.000 E1.43834
G1 X116.390 Y93.608 E1.95116
G1 X120.081 Y100.000 E2.46399
G1 X116.390 Y106.392 E2.97682
G1 X109.010 Y106.392 E3.48964
G1 X105.319 Y100.000 E4.00247
G1 X108.525 Y94.448 E4.44789
G1 X109.049 Y94.654 F4200.000
G1 X109.331 Y94.165 F2700.000 E4.48714
G1 X116.069 Y94.165 E4.95527
G1 X119.437 Y100.000 E5.42340
G1 X116.069 Y105.835 E5.89153
G1 X109.331 Y105.835 E6.35966
G1 X105.963 Y100.000 E6.82779
G1 X109.007 Y94.727 E7.25086
G1 X108.770 Y94.172 F4200.000
G1 F1800.000 E6.25086
G92 E0
G1 X109.093 Y106.949 F4200.000
G1 F1800.000 E1.00000
G1 X116.307 Y106.949 F2700.000 E1.50120
G1 X116.361 Y107.222 E1.52057
G1 X115.203 Y107.702 E1.60770
G1 X113.967 Y107.999 E1.69600
G1 X112.700 Y108.099 E1.78430
G1 X111.433 Y107.999 E1.87259
G1 X110.197 Y107.702 E1.96089
G1 X109.039 Y107.222 E2.04802
G1 X109.077 Y107.031 E2.06158
G1 X108.505 Y106.633 F4200.000
G1 X108.267 Y106.831 F2700.000 E2.08316
G1 X106.973 Y105.727 E2.20133
G1 X106.148 Y104.760 E2.28963
G1 X105.484 Y103.677 E2.37793
G1 X104.998 Y102.503 E2.46623
G1 X104.701 Y101.267 E2.55453
G1 X104.634 Y100.412 E2.61412
G1 X104.871 Y100.338 E2.63140
G1 X108.464 Y106.560 E3.13061
G1 F1800.000 E2.13061
G92 E0
G1 X104.871 Y99.662 F4200.000
G1 F1800.000 E1.00000
G1 X104.634 Y99.588 F2700.000 E1.01728
G1 X104.701 Y98.733 E1.07687
G1 X104.998 Y97.497 E1.16517
G1 X105.484 Y96.323 E1.25347
G1 X106.148 Y95.240 E1.34177
G1 X106.973 Y94.273 E1.43007
G1 X108.267 Y93.169 E1.54824
G1 X108.505 Y93.367 E1.56982
G1 X104.913 Y99.590 E2.06903
G1 F1800.000 E1.06903
G92 E0
G1 X109.093 Y93.051 F4200.000
G1 F1800.000 E1.00000
G1 X109.039 Y92.778 F2700.000 E1.01937
G1 X110.197 Y92.298 E1.10650
G1 X111.433 Y92.001 E1.19480
G1 X112.700 Y91.901 E1.28310
G1 X113.967 Y92.001 E1.37139
G1 X115.203 Y92.298 E1.45969
G1 X116.361 Y92.778 E1.54682
G1 X116.307 Y93.051 E1.56619
G1 X109.177 Y93.051 E2.06159
G1 F1800.000 E1.06159
G92 E0
G1 X116.895 Y93.367 F4200.000
G1 F1800.000 E1.00000
G1 X117.133 Y93.169 F2700.000 E1.02157
G1 X118.427 Y94.273 E1.13974
G1 X119.252 Y95.240 E1.22804
G1 X119.916 Y96.323 E1.31634
G1 X120.402 Y97.497 E1.40464
G1 X120.699 Y98.733 E1.49294
G1 X120.766 Y99.588 E1.55254
G1 X120.529 Y99.662 E1.56981
G1 X116.936 Y93.440 E2.06902
G1 F1800.000 E1.06902
G92 E0
G1 X120.529 Y100.338 F4200.000
G1 F1800.000 E1.00000
G1 X120.766 Y100.412 F2700.000 E1.01728
G1 X120.699 Y101.267 E1.07687
G1 X120.402 Y102.503 E1.16517
G1 X119.916 Y103.677 E1.25347
G1 X119.252 Y104.760 E1.34177
G1 X118.427 Y105.727 E1.43007
G1 X117.133 Y106.831 E1.54824
G1 X116.895 Y106.633 E1.56981
G1 X120.487 Y100.410 E2.06902
G1 X121.339 Y100.233 F4200.000
G1 X121.251 Y101.354 F1800.000 E2.14720
G1 X120.934 Y102.675 E2.24159
G1 X120.414 Y103.930 E2.33598
G1 X119.704 Y105.089 E2.43037
G1 X118.822 Y106.122 E2.52477
G1 X117.789 Y107.004 E2.61916
G1 X116.630 Y107.714 E2.71355
G1 X115.375 Y108.234 E2.80794
G1 X114.054 Y108.551 E2.90233
G1 X112.700 Y108.657 E2.99672
G1 X111.346 Y108.551 E3.09111
G1 X110.025 Y108.234 E3.18551
G1 X108.770 Y107.714 E3.27990
G1 X108.571 Y107.592 E3.29611
G1 X107.611 Y107.004 E3.37429
G1 X106.578 Y106.122 E3.46868
G1 X105.696 Y105.089 E3.56308
G1 X105.574 Y104.890 E3.57929
G1 X104.986 Y103.930 E3.65747
G1 X104.466 Y102.675 E3.75186
G1 X104.149 Y101.354 E3.84625
G1 X104.043 Y100.000 E3.94064
G1 X104.149 Y98.646 E4.03504
G1 X104.466 Y97.325 E4.12943
G1 X104.986 Y96.070 E4.22382
G1 X105.696 Y94.911 E4.31821
G1 X106.578 Y93.878 E4.41260
G1 X107.611 Y92.996 E4.50699
G1 X108.770 Y92.286 E4.60139
G1 X110.025 Y91.766 E4.69578
G1 X111.346 Y91.449 E4.79017
G1 X112.700 Y91.343 E4.88456
G1 X114.054 Y91.449 E4.97895
G1 X115.375 Y91.766 E5.07335
G1 X116.630 Y92.286 E5.16774
G1 X117.789 Y92.996 E5.26213
G1 X118.822 Y93.878 E5.35652
G1 X119.704 Y94.911 E5.45091
G1 X120.414 Y96.070 E5.54531
G1 X120.934 Y97.325 E5.63970
G1 X121.251 Y98.646 E5.73409
G1 X121.357 Y100.000 E5.82848
G1 X121.346 Y100.149 E5.83889
G1 X121.894 Y100.276 F4200.000
G1 X121.803 Y101.442 F1800.000 E5.92011
G1 X121.465 Y102.848 E6.02060
G1 X120.912 Y104.184 E6.12108
G1 X120.156 Y105.417 E6.22157
G1 X119.217 Y106.517 E6.32205
G1 X118.117 Y107.456 E6.42254
G1 X116.884 Y108.212 E6.52302
G1 X115.548 Y108.765 E6.62351
G1 X114.142 Y109.103 E6.72399
G1 X112.700 Y109.216 E6.82447
G1 X111.258 Y109.103 E6.92496
G1 X109.852 Y108.765 E7.02544
G1 X108.516 Y108.212 E7.12593
G1 X107.302 Y107.472 E7.22470
G1 X106.183 Y106.517 E7.32692
G1 X105.244 Y105.417 E7.42740
G1 X105.099 Y105.181 E7.44666
G1 X104.488 Y104.184 E7.52789
G1 X103.935 Y102.848 E7.62837
G1 X103.597 Y101.442 E7.72886
G1 X103.484 Y100.000 E7.82934
G1 X103.597 Y98.558 E7.92983
G1 X103.935 Y97.152 E8.03031
G1 X104.488 Y95.816 E8.13080
G1 X105.244 Y94.583 E8.23128
G1 X106.183 Y93.483 E8.33176
G1 X107.283 Y92.544 E8.43225
G1 X108.516 Y91.788 E8.53273
G1 X109.852 Y91.235 E8.63322
G1 X111.258 Y90.897 E8.73371
G1 X112.700 Y90.784 E8.83419
G1 X114.142 Y90.897 E8.93467
G1 X115.548 Y91.235 E9.03516
G1 X116.884 Y91.788 E9.13564
G1 X118.117 Y92.544 E9.23613
G1 X119.217 Y93.483 E9.33661
G1 X120.156 Y94.583 E9.43709
G1 X120.912 Y95.816 E9.53758
G1 X121.465 Y97.152 E9.63806
G1 X121.803 Y98.558 E9.73855
G1 X121.916 Y100.000 E9.83903
G1 X121.901 Y100.193 E9.85248
G1 X121.392 Y100.516 F4200.000
G1 F1800.000 E8.85248
G92 E0
G1 X94.681 Y100.000 F4200.000
G1 F1800.000 E1.00000
G1 X90.990 Y106.392 F1800.000 E1.51283
G1 X83.610 Y106.392 E2.02565
G1 X79.919 Y100.000 E2.53848
G1 X83.610 Y93.608 E3.05130
G1 X90.990 Y93.608 E3.56413
G1 X94.639 Y99.928 E4.07115
G1 X94.037 Y100.000 F4200.000
G1 X90.669 Y105.835 F2700.000 E4.53928
G1 X83.931 Y105.835 E5.00741
G1 X80.563 Y100.000 E5.47554
G1 X83.931 Y94.165 E5.94367
G1 X90.669 Y94.165 E6.41180
G1 X93.996 Y99.928 E6.87413
G1 X94.464 Y100.358 F4200.000
G1 F1800.000 E5.87413
G92 E0
G1 X90.907 Y106.949 F4200.000
G1 F1800.000 E1.00000
G1 X90.961 Y107.222 F2700.000 E1.01937
G1 X89.803 Y107.702 E1.10650
G1 X88.567 Y107.999 E1.19480
G1 X87.300 Y108.099 E1.28310
G1 X86.033 Y107.999 E1.37139
G1 X84.797 Y107.702 E1.45969
G1 X83.639 Y107.222 E1.54682
G1 X83.693 Y106.949 E1.56619
G1 X90.823 Y106.949 E2.06158
